docs/assets/icons/material/file-arrow-up-down.svg

<?xml version="1.0" encoding="UTF-8" standalone="no"?>
<svg
   viewBox="0 0 24 24"
   version="1.1"
   id="svg1"
   sodipodi:docname="file-arrow-up-down.svg"
   inkscape:version="1.4.2 (2aeb623e1d, 2025-05-12)"
   xmlns:inkscape="http://www.inkscape.org/namespaces/inkscape"
   xmlns:sodipodi="http://sodipodi.sourceforge.net/DTD/sodipodi-0.dtd"
   xmlns="http://www.w3.org/2000/svg"
   xmlns:svg="http://www.w3.org/2000/svg">
  <defs
     id="defs1" />
  <sodipodi:namedview
     id="namedview1"
     pagecolor="#ffffff"
     bordercolor="#000000"
     borderopacity="0.25"
     inkscape:showpageshadow="2"
     inkscape:pageopacity="0.0"
     inkscape:pagecheckerboard="0"
     inkscape:deskcolor="#d1d1d1"
     inkscape:zoom="18.675469"
     inkscape:cx="3.0521322"
     inkscape:cy="16.411904"
     inkscape:window-width="1920"
     inkscape:window-height="1163"
     inkscape:window-x="1080"
     inkscape:window-y="0"
     inkscape:window-maximized="1"
     inkscape:current-layer="svg1" />
  <path
     d="M 19.5,18 H 18 v 4 H 16 V 18 H 14.5 L 17,15 Z"
     id="path4"
     style="fill:#00b9e4;fill-opacity:1" />
  <path
     d="M 23.5,20 21,23 18.5,20 H 20 v -4 h 2 v 4 h 1.5"
     id="path3"
     style="fill:#00b9e4;fill-opacity:1" />
  <path
     id="path1"
     d="M 6,2 C 4.89,2 4,2.89 4,4 v 16 c 0,1.11 0.89,2 2,2 h 7.810547 C 13.300547,21.12 13,20.1 13,19 c 0,-3.31 2.69,-6 6,-6 0.34,0 0.67,0.03984 1,0.08984 V 8 L 14,2 Z M 13,3.5 18.5,9 H 13 Z"
     style="display:inline" />
</svg>

<svg xmlns="http://www.w3.org/2000/svg" viewBox="0 0 24 24"><path d="M19 13C19.34 13 19.67 13.04 20 13.09V8L14 2H6C4.89 2 4 2.89 4 4V20C4 21.11 4.89 22 6 22H13.81C13.3 21.12 13 20.1 13 19C13 15.69 15.69 13 19 13M13 3.5L18.5 9H13V3.5M23.5 20L21 23L18.5 20H20V16H22V20H23.5M19.5 18H18V22H16V18H14.5L17 15L19.5 18Z" /></svg>
